icons/1_Primary/Fundrise.svg

<svg width="1024" height="1024" fill="none" xmlns="http://www.w3.org/2000/svg"><g clip-path="url(#a)"><path d="M512 1024c282.77 0 512-229.23 512-512S794.77 0 512 0 0 229.23 0 512s229.23 512 512 512Z" fill="#F8C18C"/><path d="M567.1 523.7h-41.3v-68.8h41.3v68.8Zm0 96.3h-41.3v-68.8h41.3V620Zm-68.8-96.3H457v-68.8h41.3v68.8Zm0 96.3H457v-68.8h41.3V620Zm96.3-178.8c0-7.6-6.2-13.8-13.8-13.8H443.3c-7.6 0-13.8 6.2-13.8 13.8v222.4c26.5-1.5 54.2-2.3 82.5-2.3 28.3 0 56 .8 82.5 2.5V441.2h.1Zm55 110h41.3V620h-41.3v-68.8Zm0-96.3h41.3v68.8h-41.3v-68.8Zm0-96.3h41.3v68.8h-41.3v-68.8Zm68.8 192.6h41.3V620h-41.3v-68.8Zm0-96.3h41.3v68.8h-41.3v-68.8Zm0-96.3h41.3v68.8h-41.3v-68.8Zm-96.3-13.7v320.7c64.1 5.1 120.9 14.7 164.9 27.2v-348c0-7.6-6.2-13.8-13.8-13.8H635.8c-7.5.1-13.7 6.3-13.7 13.9ZM374.5 620h-41.3v-68.8h41.3V620Zm-68.7 0h-41.3v-68.8h41.3V620Zm-55-96.3c-7.6 0-13.8 6.2-13.8 13.8v155.3c44-12.5 100.8-22.1 165-27.2v-128c0-7.6-6.2-13.8-13.8-13.8H250.8v-.1Z" fill="#fff"/></g><defs><clipPath id="a"><path fill="#fff" d="M0 0h1024v1024H0z"/></clipPath></defs></svg>

<svg width="1024" height="1024" viewBox="0 0 1024 1024" fill="none" xmlns="http://www.w3.org/2000/svg">
<g clip-path="url(#clip0_2_2244)">
<path d="M512 1024C794.77 1024 1024 794.77 1024 512C1024 229.23 794.77 0 512 0C229.23 0 0 229.23 0 512C0 794.77 229.23 1024 512 1024Z" fill="#F8C18C"/>
<path d="M567.1 523.7H525.8V454.9H567.1V523.7ZM567.1 620H525.8V551.2H567.1V620ZM498.3 523.7H457V454.9H498.3V523.7ZM498.3 620H457V551.2H498.3V620ZM594.6 441.2C594.6 433.6 588.4 427.4 580.8 427.4H443.3C435.7 427.4 429.5 433.6 429.5 441.2V663.6C456 662.1 483.7 661.3 512 661.3C540.3 661.3 568 662.1 594.5 663.8V441.2H594.6ZM649.6 551.2H690.9V620H649.6V551.2ZM649.6 454.9H690.9V523.7H649.6V454.9ZM649.6 358.6H690.9V427.4H649.6V358.6ZM718.4 551.2H759.7V620H718.4V551.2ZM718.4 454.9H759.7V523.7H718.4V454.9ZM718.4 358.6H759.7V427.4H718.4V358.6ZM622.1 344.9V665.6C686.2 670.7 743 680.3 787 692.8V344.8C787 337.2 780.8 331 773.2 331H635.8C628.3 331.1 622.1 337.3 622.1 344.9ZM374.5 620H333.2V551.2H374.5V620ZM305.8 620H264.5V551.2H305.8V620ZM250.8 523.7C243.2 523.7 237 529.9 237 537.5V692.8C281 680.3 337.8 670.7 402 665.6V537.6C402 530 395.8 523.8 388.2 523.8H250.8V523.7Z" fill="white"/>
</g>
<defs>
<clipPath id="clip0_2_2244">
<rect width="1024" height="1024" fill="white"/>
</clipPath>
</defs>
</svg>
